X:1
T:Dies Sanctificatus
T:Constanzo Porta arr. from tttb BMarble
T:Dies Sanctificatus
T:Copyright © 2017 by The Choral Public Domain Library. Edition may be freely distributed, duplicated, performed or recorded.
T:Copyright © 2017 by The Choral Public Domain Library. Edition may be freely distributed, duplicated, performed or recorded.
T:Copyright © 2017 by The Choral Public Domain Library. Edition may be freely distributed, duplicated, performed or recorded.
T:Copyright © 2017 by The Choral Public Domain Library. Edition may be freely distributed, duplicated, performed or recorded.
T:Copyright © 2017 by The Choral Public Domain Library. Edition may be freely distributed, duplicated, performed or recorded.
T:Copyright © 2017 by The Choral Public Domain Library. Edition may be freely distributed, duplicated, performed or recorded.
T:Copyright © 2017 by The Choral Public Domain Library. Edition may be freely distributed, duplicated, performed or recorded.
C:Constanzo Porta
C:arr. from tttb BMarble
Z:Copyright © 2017 by The Choral Public Domain Library. Edition may be freely distributed, duplicated, performed or recorded.
%%score [ 1 2 3 4 ]
L:1/8
Q:1/4=52
M:4/2
K:C
V:1 treble nm="Alto" snm="A."
V:2 treble nm="Alto" snm="A."
V:3 treble-8 transpose=-12 nm="Tenor" snm="T."
V:4 treble-8 transpose=-12 nm="Tenor" snm="T."
V:1
"^Day of consecration, illuminate us,come ye peoples and adore the Lord,who today descends to earth in a great light,this day which the Lord made.Let us praise and rejoice in Him," z16 | %1
w: |
 z16 | z16 | z16 | z16 | z16 | z16 | z16 | E16 | E8 D8 | E8 A,4 C4- | (C2 D2 E2 C2 D8) | C8 z8 | %13
w: |||||||Di-|es san-|cti- fi- ca-||tus|
 z8 z4 A,4 | A,4 A,4 G,2 A,2 B,2 G,2 | A,2 B,2 C2 D2 E4 E4 | z4 A,8 A4- | A4 A4 A8- | A4 E4 z4 G4 | %19
w: il-|lu- xit no- * * *|* * * * * bis:|Ve- ni-|* te gen-|* tes, et|
 G12 E4 | F8 E8 | z4 E4 E8- | E4 D4 B,8 | C4 A,8 ^G,4 | A,8 z8 | z16 |S E12 A,4 | %27
w: a- do-|ra- te,|et a-|* do- ra-|te Do- mi-|num.||Qui- a|
 (C6 B,2 A,4) A,4 | G,4 z4 z8 | z16 | z4 E4 (G6 F2 | E2 D2 C2 B,2 A,4) A,4 | z4 C4 (D8 | %33
w: ho- * * di-|e,||de- scen- *|* * * * * dit|de- scen-|
 E8) (A,6 B,2 | C4) A,4 A8- |1 A4 G8 F4 | E8 E8 ||2 A4 G8 F4 ||"^rit." E16 | E16!fine! |] %40
w: * dit _|_ lux ma-|* gna in|ter- ris.|* gna in|ter-|ris.|
[Q:1/4=52] z8 E8- | (E8 F8) | (E12 D4) | E16 | (C6 D2 E2 F2 G4 | A8) G8 | z4 E8 C4- | %47
w: Haec|_ _|di- *|es,|di- * * * *|* es|quam fe-|
 C4 A,4 (E6 D2 | C12) A,4 | B,8 z8 ||[M:3/2][Q:1/2=156] C8 C4 | B,8 B,4 | z4 E6 F2 | %53
w: * cit Do- *|* mi-|nus:|E- xul-|te- mus,|et lae-|
[M:3/1] G8 A4 E4 G8 |[M:3/2] G8 z4 | E8 C4 | B,8 B,4 | z4 E6 F2 |[M:3/1] G8 A4 E4 G8 || %59
w: te- mur in e-|a.|E- xul-|te- mus,|et lae-|te- mur in e-|
[M:4/2][Q:1/4=52] G16 | z16 | z16!D.S.! |] %62
w: a.|||
V:2
 E16 | E8 D8 | E8 A,4 C4- | (C2 D2 E2 C2 D8) | C8 z4 C4 | C4 C4 B,2 C2 D2 B,2 | C2 D2 E6 C2 F4 | %7
w: Di-|es san-|cti- fi- ca-||tus il-|lu- xit no- * * *||
 E8 z8 | z16 | z16 | z8 z4 A,4 | A,4 A,4 G,2 A,2 B,2 G,2 | A,2 B,2 C2 D2 E2 D2 E2 F2 | G8 E8 | %14
w: bis,|||il-|lu- xit no- * * *||* bis:|
 z16 | z8 z4 A,4 | E8 D8 | F16 | E16- | E8 z8 | z8 z4 G4 | G12 E4 | F8 E4 E4- | (E4 C4) B,8 | %24
w: |Ve-|ni- te|gen-|tes,|_|et|a- do-|ra- te Do-|* * mi-|
 A,8 E8- | E4 C4 D6 D2 | C8 z8 | z16 | z4 B,4 (G6 F2 | E2 D2 C2 B,2 A,8) | E4 C4 D8 | C16 | %32
w: num. Qui-|* a ho- di-|e||de- scen- *||dit lux ma-|gna|
 z4 A,4 A8- | A4 G4 E4 F4- | F2 E2 E6 DC D4 |1 E4 B,4 (D6 C2 | B,8) ^C8 ||2 E4 B,4 (D6 C2 || %38
w: de- scen-|* dit lux ma-||gna in ter- *|* ris.|gna in ter- *|
 (B,8) ^C8) | ^C16 |] z8 B,8- | (B,4 D8) A,4- | (A,2 B,2 C2 D2 E2 F2 G4) | C8 z4 C4 | %44
w: |ris.|Haec|_ _ di-||es quam|
 (E6 F2 G4) E4 | C4 D4 E8- | E8 z8 | z4 E4 A4 G4 | (F6 ED C4) D4 | E8 z8 ||[M:3/2] G8 G4 | G8 G4 | %52
w: fe- * * cit,|quam fe- cit,|_|quam fe- cit|Do- * * * mi-|nus:|E- xul-|te- mus,|
 E6 G2 E4 |[M:3/1] D4 C4 (C6 A,2 D8) |[M:3/2] E8 z4 | G8 G4 | G8 G4 | C6 B,2 C4 | %58
w: et lae- te-|mur in e- * *|a.,|e- xul-|te- mus,|et lae- te-|
[M:3/1] D4 E8 (C8 B,4) ||[M:4/2] C16- | C8 E8- | E4 C4 D6 D2 |] %62
w: mur in e- *|a.|_ Qui-|* a ho- di-|
V:3
 z16 | z16 | z16 | z16 | e16 | e8 d8 | e8 A4 c4- | (c2 d2 e2 c2 d8) | c8 z4 c4 | %9
w: ||||Di-|es san-|cti- fi- ca-||tus il-|
 c4 c4 B2 c2 d2 B2 | c2 d2 e6 c2 f4 | e8 z8 | e8 c4 c4 | (B2 c2 d2 B2 c2 d2 e4-) | %14
w: lu- xit no- * * *||bis,|il- lu- xit|no- * * * * * *|
 (e2 d2 c4) B4 e4 | e8 c8- | c8 f8- | f8 d8 | z4 c4 c4 c4 | B12 G4 | A6 B2 c2 G2 c4- | %21
w: * * * bis: Ve-|ni- te|_ gen-|* tes,|et a- do-|ra- te|Do- * * * *|
 c4 B2 A2 B4 c4- | c2 B2 A8 ^G4 | A8 z8 | z4 e8 A4 | c6 c2 B8 | z16 | z4 A4 (d6 c2 | %28
w: |* * * mi-|num.|Qui- a|ho- di- e||de- scen- *|
 B2 A2 G2 F2 E8) | A4 e8 A4 | c6 c2 B8 | z4 A4 e6 d2 | c2 B2 A6 G2 F4 | E4 (e2 d2 c2 B2 A4-) | %34
w: |dit, qui- a|ho- di- e|de- scen- *||dit lux _ _ _ _|
 A4 (c8 B2 A2 |1 B6) B2 B4 A4- | (A4 ^G4) A8 ||2 B6 B2 B4 A4- || A2 ^G2 G2 FG A8 | A16 |] z16 | %41
w: _ ma- * *|* gna in ter-|* * ris.|* gna in ter-||ris.||
 (B8 A8 | c8 B8) | (A6 B2 c2 d2 e4-) | (e2 d2 c4) B8 | z4 A4 c4 B4 | A4 (c2 B2 c2 d2 e4-) | %47
w: Haec _|_ _|di- * * * *|* * * es|quam fe- cit,|quam fe- * * * *|
 (e4 c8) B4 | A12 A4 | ^G8 z8 ||[M:3/2] e8 e4 | d8 e4 | c6 B2 c4 |[M:3/1] d4 e8 (c8 B4) | %54
w: * * cit|Do- mi-|nus:|E- xul-|te- mus,|et lae- te-|mur in e- *|
[M:3/2] c8 z4 | c8 e4 | d8 e4 | e6 g2 e4 |[M:3/1] d4 c4 (c6 A2 d8) ||[M:4/2] e16 | z4 e8 A4 | %61
w: a.|e- xul-|te- mus,|et lae- te-|mur in e- * *|a.|Qui- a|
 c6 c2 B8 |] %62
w: ho- di- e|
V:4
 z16 | z16 | A16 | A8 G8 | A8 E4 A4- | (A2 B2 c2 A2 B8) | A8 z4 A4 | A4 A4 G2 A2 B2 G2 | %8
w: ||Di-|es san-|cti- fi- ca-||tus il-|lu- xit no- * * *|
 A2 B2 c6 B2 A4- | A2 G2 E2 F2 G8 | C8 z8 | z16 | z4 A4 A4 A4 | G2 A2 B2 G2 A2 B2 c2 A2 | %14
w: ||bis:||il- lu- xit|no- * * * * * * *|
 c2 d2 e4 E8 | z4 A4 A8- | A8 D8 | d16 | A8 z8 | E8 E4 E4 | D8 C8 | E6 F2 G2 E2 A4- | A4 D4 E8 | %23
w: * * * bis:|Ve- ni-|* te|gen-|tes,|et a- do-|ra- te|Do- * * * *|* mi- num.|
 z8 e8- | e4 A4 (c6 B2 | A4) A4 G8 | z4 A4 c6 B2 | A2 G2 F6 E2 D4 | E8 z4 e4- | e4 A4 (c6 B2 | %30
w: Qui-|* a ho- *|* di- e|de- scen- *||dit, Qui-|* a ho- *|
 A4) A4 G8 | A4 e6 d2 c2 B2 | A2 G2 F6 E2 D4 | C8 z4 D4 | (A6 G2 F8) |1 E4 E4 D8 | E8 z8 ||2 %37
w: * di- e|de- scen- * * *||dit lux|ma- * *|gna in ter-|ris.|
 E8 D8 || (E8 e8) | A16 |] z8 (E8 | G8) (D8 | A8) G8 | z8 A8 | A8 E8 | F6 F2 E8 | z8 A8 | A12 E4 | %48
w: gna in|ter- *|ris.|Haec|_ di-|* es|quam|fe- cit|Do- mi- nus,|quam|fe- cit|
 F12 F4 | E8 z8 ||[M:3/2] C8 C4 | G8 E4 | A6 G2 A4 |[M:3/1] B4 c4 A8 G8 |[M:3/2] z12 | C8 C4 | %56
w: Do- mi-|nus:|E- xul-|te- mus,|et lae- te-|mur in e- a,.||e- xul-|
 G8 E4 | A6 G2 A4 |[M:3/1] B4 c4 A8 G8 ||[M:4/2] z8 e8- | e4 A4 (c6 B2 | A4) A4 G8 |] %62
w: te- mus,|et lae- te-|mur in e- a.|Qui-|* a ho- *|* di- e|

